X:1
T:Title
%%score ( 1 2 ) 3
L:1/8
Q:1/4=80
M:3/4
K:A
V:1 treble nm="Choir Aahs, ChrchOrg"
V:2 treble 
V:3 bass nm="Choir Aahs, ChrchOrg-2"
V:1
 [CE][A,C] [B,D] [CE]3 | [CA][Ec] [EB] [DB]2 [CA] | [EA][EG] [DF] [CE]2 [A,C] | %3
w: By~Joel~Blomquist,~1877 * * *|||
 [CE][B,E] [G,D] [A,C]3 | [CE][CA] [Ec] e2 d | [Ec][EB] [CA] [FA]2 [DF] | [DF][FA] [DF] E3 | %7
w: ||||
 [EA][DG] [DB] [CA]3 |] %8
w: |
V:2
 x6 | x6 | x6 | x6 | z2 z E3 | x6 | x6 | x6 |] %8
V:3
 [A,,A,][A,,E,] [A,,E,] [A,,A,]3 | [A,,A,][E,A,] [E,G,] [^E,G,]2 [F,A,] | %2
 [C,A,][D,A,] [D,A,] [E,A,]3 | [E,A,][E,G,] E, [A,,E,]3 | [A,,A,][A,,A,] [A,,A,] [A,C]2 [G,B,] | %5
 A,[E,G,] [F,A,] [D,A,]2 [D,A,] | [D,A,][D,A,] [D,A,] [C,A,]3 | [C,A,][E,B,] [E,G,] [A,,A,]3 |] %8

